public/images/socials/icon/vecter5.svg

<svg width="40" height="32" viewBox="0 0 40 32" fill="none" xmlns="http://www.w3.org/2000/svg">
<path d="M39.2225 3.85224C37.9676 4.3923 36.6483 4.76836 35.2973 4.97114C35.9289 4.86286 36.8583 3.72592 37.2283 3.26573C37.7903 2.57157 38.2187 1.77914 38.4916 0.928687C38.4916 0.865524 38.5547 0.77529 38.4916 0.730174C38.4597 0.712799 38.4241 0.703694 38.3878 0.703694C38.3515 0.703694 38.3159 0.712799 38.284 0.730174C36.817 1.52461 35.2557 2.13094 33.637 2.53484C33.5806 2.55207 33.5206 2.55362 33.4633 2.53931C33.4061 2.52501 33.3538 2.49538 33.3122 2.45363C33.1862 2.3036 33.0505 2.16193 32.9061 2.02953C32.2459 1.43801 31.4969 0.953869 30.6864 0.594824C29.5923 0.145983 28.4106 -0.0484001 27.2305 0.0263543C26.0853 0.0986743 24.9673 0.405819 23.946 0.928687C22.9402 1.47994 22.0562 2.22884 21.3472 3.13038C20.6015 4.05829 20.063 5.13516 19.7682 6.28854C19.525 7.38564 19.4974 8.51955 19.687 9.62717C19.687 9.81666 19.687 9.84373 19.5245 9.81666C13.0909 8.86921 7.81226 6.58631 3.49911 1.68665C3.30962 1.47009 3.21036 1.47009 3.05697 1.68665C1.18011 4.53802 2.09147 9.04968 4.43753 11.2784C4.75335 11.5762 5.07819 11.865 5.42108 12.1357C4.34542 12.0593 3.29604 11.7678 2.3351 11.2784C2.15463 11.1611 2.05538 11.2243 2.04635 11.4409C2.02077 11.7411 2.02077 12.043 2.04635 12.3432C2.23463 13.782 2.80168 15.1451 3.6895 16.2929C4.57733 17.4407 5.75408 18.3322 7.09942 18.8761C7.42738 19.0166 7.76911 19.1224 8.11905 19.1919C7.12326 19.3879 6.10195 19.4184 5.09624 19.2821C4.87968 19.237 4.79847 19.3543 4.87968 19.5619C6.20611 23.1712 9.08455 24.272 11.196 24.8856C11.4848 24.9307 11.7735 24.9307 12.0983 25.0029C12.0983 25.0029 12.0983 25.0029 12.0442 25.0571C11.4216 26.194 8.90408 26.961 7.74909 27.358C5.64095 28.1152 3.39328 28.4047 1.16207 28.2062C0.810158 28.1521 0.728948 28.1611 0.638715 28.2062C0.548482 28.2513 0.638715 28.3506 0.737972 28.4408C1.18914 28.7386 1.6403 29.0003 2.10952 29.2529C3.50637 30.0148 4.98312 30.62 6.5129 31.0576C14.4354 33.2412 23.3504 31.6351 29.2968 25.7248C33.9709 21.0868 35.6131 14.6893 35.6131 8.2827C35.6131 8.03907 35.9109 7.89469 36.0823 7.76837C37.2649 6.84699 38.3074 5.75886 39.1773 4.53802C39.328 4.35603 39.4052 4.12432 39.3939 3.88834V3.88834C39.3939 3.75299 39.3939 3.78006 39.2225 3.85224Z" fill="#CBD3DC"/>
</svg>

<svg version="1.2" xmlns="http://www.w3.org/2000/svg" viewBox="0 0 40 32" width="40" height="32">
	<title>vecter5-svg</title>
	<defs>
		<clipPath clipPathUnits="userSpaceOnUse" id="cp1">
			<path d="m39.22 3.85q-1.89 0.81-3.92 1.12c0.63-0.11 1.56-1.24 1.93-1.7q0.85-1.06 1.26-2.34c0-0.06 0.06-0.15 0-0.2q-0.05-0.03-0.1-0.03-0.06 0-0.11 0.03-2.21 1.2-4.64 1.8-0.09 0.03-0.18 0.01-0.08-0.02-0.15-0.09-0.19-0.22-0.4-0.42-1-0.89-2.22-1.44c-1.1-0.44-2.28-0.64-3.46-0.56-1.14 0.07-2.26 0.38-3.28 0.9-1.01 0.55-1.89 1.3-2.6 2.2-0.75 0.93-1.29 2.01-1.58 3.16q-0.37 1.66-0.08 3.34c0 0.19 0 0.21-0.17 0.19-6.43-0.95-11.71-3.23-16.02-8.13-0.19-0.22-0.29-0.22-0.44 0-1.88 2.85-0.97 7.36 1.38 9.59q0.47 0.45 0.98 0.86c-1.07-0.08-2.12-0.37-3.08-0.86q-0.28-0.17-0.29 0.16-0.04 0.45 0 0.9c0.18 1.44 0.75 2.81 1.64 3.95 0.89 1.15 2.06 2.04 3.41 2.59q0.49 0.21 1.02 0.31-1.5 0.3-3.02 0.09c-0.22-0.04-0.3 0.07-0.22 0.28 1.33 3.61 4.2 4.71 6.32 5.33 0.28 0.04 0.57 0.04 0.9 0.11 0 0 0 0-0.06 0.06-0.62 1.13-3.14 1.9-4.29 2.3-2.11 0.76-4.36 1.04-6.59 0.85-0.35-0.06-0.43-0.05-0.52 0-0.09 0.04 0 0.14 0.1 0.23q0.67 0.44 1.37 0.81 2.1 1.15 4.4 1.81c7.93 2.18 16.84 0.58 22.79-5.34 4.67-4.63 6.31-11.03 6.31-17.44 0-0.24 0.3-0.39 0.47-0.51q1.78-1.39 3.1-3.23 0.23-0.29 0.21-0.65c0-0.14 0-0.11-0.17-0.04z"/>
		</clipPath>
		<image  width="40" height="32" id="img1" href="data:image/png;base64,iVBORw0KGgoAAAANSUhEUgAAACgAAAAgAQMAAABaY6hDAAAAAXNSR0IB2cksfwAAAANQTFRFK2HRHlAsfwAAAAxJREFUeJxjYBjaAAAAwAABmwGcAgAAAABJRU5ErkJggg=="/>
	</defs>
	<style>
		.s0 { fill: #cbd3dc } 
	</style>
	<g clip-path="url(#cp1)">
		<path id="Layer" class="s0" d="m39.2 3.9q-1.9 0.8-3.9 1.1c0.6-0.1 1.6-1.3 1.9-1.7q0.9-1.1 1.3-2.4c0 0 0.1-0.1 0-0.2q-0.1 0-0.1 0-0.1 0-0.1 0-2.2 1.2-4.7 1.8 0 0.1-0.1 0-0.1 0-0.2 0-0.2-0.3-0.4-0.5-1-0.9-2.2-1.4c-1.1-0.5-2.3-0.6-3.5-0.6-1.1 0.1-2.2 0.4-3.3 0.9-1 0.6-1.8 1.3-2.6 2.2-0.7 1-1.2 2-1.5 3.2q-0.4 1.6-0.1 3.3c0 0.2 0 0.2-0.2 0.2-6.4-0.9-11.7-3.2-16-8.1-0.2-0.2-0.3-0.2-0.4 0-1.9 2.8-1 7.3 1.3 9.6q0.5 0.4 1 0.8c-1.1 0-2.1-0.3-3.1-0.8q-0.2-0.2-0.3 0.1 0 0.5 0 0.9c0.2 1.5 0.8 2.8 1.7 4 0.9 1.1 2.1 2 3.4 2.6q0.5 0.2 1 0.3-1.5 0.3-3 0.1c-0.2-0.1-0.3 0.1-0.2 0.3 1.3 3.6 4.2 4.7 6.3 5.3 0.3 0 0.6 0 0.9 0.1 0 0 0 0-0.1 0.1-0.6 1.1-3.1 1.9-4.3 2.3-2.1 0.7-4.3 1-6.5 0.8-0.4 0-0.5 0-0.6 0-0.1 0.1 0 0.2 0.1 0.2q0.7 0.5 1.4 0.9 2.1 1.1 4.4 1.8c7.9 2.1 16.9 0.5 22.8-5.4 4.7-4.6 6.3-11 6.3-17.4 0-0.3 0.3-0.4 0.5-0.5q1.8-1.4 3.1-3.3 0.2-0.2 0.2-0.6c0-0.1 0-0.1-0.2 0z"/>
		<use id="Layer 1" href="#img1" x="0" y="0"/>
	</g>
</svg>
